icons/quasar.svg

<svg width="16" height="16" viewBox="0 0 16 16" fill="none" xmlns="http://www.w3.org/2000/svg">
<path d="M9.74129 7.99773C9.74129 8.45955 9.55783 8.90246 9.23128 9.22902C8.90472 9.55557 8.46181 9.73903 7.99999 9.73903C7.53817 9.73903 7.09527 9.55557 6.76871 9.22902C6.44216 8.90246 6.2587 8.45955 6.2587 7.99773C6.2587 7.53591 6.44216 7.09301 6.76871 6.76645C7.09527 6.4399 7.53817 6.25644 7.99999 6.25644C8.46181 6.25644 8.90472 6.4399 9.23128 6.76645C9.55783 7.09301 9.74129 7.53591 9.74129 7.99773V7.99773Z" fill="#909090" fill-opacity="0.9"/>
<path d="M13.1828 5.00422C12.9295 4.56688 12.6211 4.16382 12.2653 3.80491L10.9148 4.58399C10.4987 4.22854 10.0214 3.95175 9.50621 3.76714C9.05568 4.21929 8.68668 4.7459 8.4155 5.32372C9.91857 5.22142 11.4704 5.76599 12.9106 6.89132L13.7605 6.40027C13.6281 5.91223 13.434 5.44309 13.1828 5.00422V5.00422Z" fill="#909090" fill-opacity="0.9"/>
<path d="M8 13.9817C8.50522 13.9802 9.00887 13.9141 9.49678 13.7866V12.2284C10.013 12.0461 10.4915 11.7709 10.9086 11.4163C10.7422 10.7999 10.4707 10.2168 10.1059 9.69286C9.44326 11.0448 8.19674 12.1167 6.50165 12.8013V13.7818C6.99027 13.9134 7.49398 13.9806 8 13.9817V13.9817Z" fill="#909090" fill-opacity="0.9"/>
<path d="M2.81716 5.00577C2.56562 5.44409 2.37098 5.91269 2.23796 6.40024L3.58837 7.17932C3.48819 7.7176 3.48712 8.26964 3.58522 8.80831C4.20207 8.97236 4.84259 9.0288 5.47862 8.97514C4.63816 7.72546 4.33439 6.10907 4.58779 4.29909L3.73789 3.80803C3.38118 4.1664 3.07176 4.56891 2.81716 5.00577V5.00577Z" fill="#909090" fill-opacity="0.9"/>
<path d="M13.1828 10.9897C13.4347 10.5522 13.6283 10.0832 13.762 9.59525L12.4132 8.81617C12.5139 8.2716 12.5139 7.72074 12.4163 7.18718C11.7995 7.02313 11.159 6.96669 10.5229 7.02035C11.3634 8.27003 11.6672 9.88642 11.4138 11.6964L12.2637 12.1875C12.6192 11.8284 12.928 11.426 13.1828 10.9897Z" fill="#00B4FF"/>
<path d="M2.81715 10.9897C3.0705 11.427 3.37888 11.8301 3.73474 12.189L5.08514 11.4099C5.50127 11.7654 5.97858 12.0422 6.49378 12.2268C6.94431 11.7746 7.31331 11.248 7.58449 10.6702C6.08142 10.7725 4.52956 10.2279 3.08944 9.1026L2.23953 9.59366C2.37331 10.0816 2.5669 10.5506 2.81715 10.9897Z" fill="#00B4FF"/>
<path d="M7.99999 2.01221C7.49477 2.01378 6.99113 2.07988 6.50322 2.20737V3.76553C5.98701 3.94782 5.50852 4.22307 5.09143 4.57766C5.25778 5.19406 5.52933 5.7771 5.89412 6.30108C6.55673 4.9491 7.80326 3.87728 9.49835 3.19263V2.21209C9.00942 2.08208 8.50591 2.01491 7.99999 2.01221Z" fill="#00B4FF"/>
</svg>

<svg xmlns="http://www.w3.org/2000/svg" width="16" height="16" fill="none" viewBox="0 0 16 16"><path fill="#909090" fill-opacity=".9" d="M9.741 7.998a1.741 1.741 0 1 1-3.482 0 1.741 1.741 0 0 1 3.482 0m3.442-2.994a6 6 0 0 0-.918-1.2l-1.35.78a4.5 4.5 0 0 0-1.409-.817 5.5 5.5 0 0 0-1.09 1.557c1.503-.103 3.054.442 4.495 1.567l.85-.49a6 6 0 0 0-.578-1.397M8 13.982a6 6 0 0 0 1.497-.195v-1.559a4.5 4.5 0 0 0 1.412-.812 5.6 5.6 0 0 0-.803-1.723c-.663 1.352-1.91 2.424-3.604 3.108v.98a5.8 5.8 0 0 0 1.498.2M2.817 5.006A6 6 0 0 0 2.238 6.4l1.35.78c-.1.538-.1 1.09-.003 1.628.617.164 1.258.22 1.894.167-.84-1.25-1.145-2.866-.891-4.676l-.85-.491c-.357.358-.666.76-.92 1.198"/><path fill="#00B4FF" d="M13.183 10.99c.252-.438.445-.907.579-1.395l-1.349-.779c.1-.544.1-1.095.003-1.629a5.6 5.6 0 0 0-1.893-.167c.84 1.25 1.144 2.866.89 4.676l.85.492a6 6 0 0 0 .92-1.198m-10.366 0c.253.437.562.84.918 1.199l1.35-.78c.416.356.894.633 1.409.818a5.5 5.5 0 0 0 1.09-1.557c-1.503.103-3.054-.442-4.495-1.567l-.85.49c.134.489.328.958.578 1.397M8 2.012a6 6 0 0 0-1.497.195v1.559a4.5 4.5 0 0 0-1.412.812c.167.616.438 1.2.803 1.723.663-1.352 1.91-2.424 3.604-3.108v-.98A6 6 0 0 0 8 2.012"/></svg>
